X:1
T:P1_No.1
T:Book1_P1_No.1 
L:1/8
M:4/4
K:C
V:1 bass nm="大提琴" snm="Vc."
V:1
 C,,4 C,,4 | C,,4 E,,2 G,,2 | C,2 E,2 G,2 z2 | G,,4 B,,2 D,2 | G,2 B,2 D2 z2 | C4 G,2 E,2 | %6
 C,2 G,2 E,2 C,2 | D,2 B,2 D,2 A,2 | G,2 G,,A,, G,,F,,E,,D,, | C,,4 E,,2 G,,2 | C,2 E,2 G,2 z2 | %11
 F,,4 A,,2 C,2 | F,2 A,2 C2 z2 | G,4 E,2 C,2 | G,,2 B,A, G,F,E,D, | C,4 G,,2 E,,2 | C,,4 z4 | %17
 A,,4 C,2 E,2 | A,2 B,2 C2 z2 | D,,4 F,,2 A,,2 | D,2 F,2 A,2 z2 | G,,4 B,,2 D,2 | G,2 B,2 D2 z2 | %23
 C,,4 E,,2 G,,2 | C,2 E,2 G,2 z2 | C4 G,2 E,2 | C,2 G,2 E,2 C,2 | A,4 F,2 C,2 | A,,2 F,2 C,2 A,,2 | %29
 G,,2 G,2 F,,2 F,2 | E,,2 E,2 D,,2 D,2 | C,,2 C,2 E,2 G,2 | C4 C,4 |] %33

